img/icons/social-media/google-plus.svg

<?xml version="1.0" encoding="iso-8859-1"?>
<!-- Generator: Adobe Illustrator 19.0.0, SVG Export Plug-In . SVG Version: 6.00 Build 0)  -->
<svg version="1.1" id="Layer_1" xmlns="http://www.w3.org/2000/svg" xmlns:xlink="http://www.w3.org/1999/xlink" x="0px" y="0px"
	 viewBox="0 0 291.32 291.32" style="enable-background:new 0 0 291.32 291.32;" xml:space="preserve">
<g>
	<path style="fill:#b3415e;" d="M145.66,0c80.113,0,145.66,65.547,145.66,145.66s-65.547,145.66-145.66,145.66S0,225.772,0,145.66
		S65.547,0,145.66,0z"/>
	<g>
		<polygon style="fill:#FFFFFF;" points="219.4,121.079 219.4,137.466 235.786,137.466 235.786,153.853 219.4,153.853 219.4,170.24
			203.013,170.24 203.013,153.853 186.626,153.853 186.626,137.466 203.013,137.466 203.013,121.079 		"/>
		<path style="fill:#FFFFFF;" d="M71.919,186.626c-21.849-21.849-21.849-60.085,0.91-81.933
			c16.387-16.387,40.056-20.028,60.995-11.835l8.193,4.552l9.104,6.373l-14.566,14.566l-5.462-3.641
			c-12.745-8.193-30.953-6.373-42.787,5.462c-13.656,13.656-14.566,38.236,0,52.802c13.656,14.566,38.236,14.566,50.981,0
			c3.641-3.641,7.283-9.104,8.193-14.566v-1.821h-32.773v-18.207h51.891l0.91,4.552v12.745c-0.91,11.835-5.462,23.67-13.656,31.863
			C132.004,208.475,93.768,208.475,71.919,186.626z"/>
	</g>
</g>
<g>
</g>
<g>
</g>
<g>
</g>
<g>
</g>
<g>
</g>
<g>
</g>
<g>
</g>
<g>
</g>
<g>
</g>
<g>
</g>
<g>
</g>
<g>
</g>
<g>
</g>
<g>
</g>
<g>
</g>
</svg>

<?xml version="1.0" encoding="UTF-8"?>
<!DOCTYPE svg PUBLIC "-//W3C//DTD SVG 1.1//EN" "http://www.w3.org/Graphics/SVG/1.1/DTD/svg11.dtd">
<svg version="1.1" xmlns="http://www.w3.org/2000/svg" xmlns:xlink="http://www.w3.org/1999/xlink" x="0" y="0" width="291.32" height="291.32" viewBox="0, 0, 291.32, 291.32">
  <g id="Layer_1">
    <g>
      <g>
        <path d="M145.66,-0 C225.773,-0 291.32,65.547 291.32,145.66 C291.32,225.773 225.773,291.32 145.66,291.32 C65.547,291.32 -0,225.772 -0,145.66 C-0,65.548 65.547,-0 145.66,-0 z" fill="#B3415E"/>
        <path d="M145.66,0 C225.773,-0 291.32,65.547 291.32,145.66 C291.32,225.773 225.773,291.32 145.66,291.32 C65.547,291.32 -0,225.772 -0,145.66 C-0,65.548 65.547,-0 145.66,-0 z M145.66,6 C68.861,6 6,68.861 6,145.66 C6,222.459 68.861,285.32 145.66,285.32 C222.459,285.32 285.32,222.459 285.32,145.66 C285.32,68.861 222.459,6 145.66,6 z" fill="#3B102B"/>
      </g>
      <g>
        <path d="M219.4,121.079 L219.4,137.466 L235.786,137.466 L235.786,153.853 L219.4,153.853 L219.4,170.24 L203.013,170.24 L203.013,153.853 L186.626,153.853 L186.626,137.466 L203.013,137.466 L203.013,121.079 z" fill="#FFFFFF"/>
        <path d="M71.919,186.626 C50.07,164.777 50.07,126.541 72.829,104.693 C89.216,88.306 112.885,84.665 133.824,92.858 L142.017,97.41 L151.121,103.783 L136.555,118.349 L131.093,114.708 C118.348,106.515 100.14,108.335 88.306,120.17 C74.65,133.826 73.74,158.406 88.306,172.972 C101.962,187.538 126.542,187.538 139.287,172.972 C142.928,169.331 146.57,163.868 147.48,158.406 L147.48,156.585 L114.707,156.585 L114.707,138.378 L166.598,138.378 L167.508,142.93 L167.508,155.675 C166.598,167.51 162.046,179.345 153.852,187.538 C132.004,208.475 93.768,208.475 71.919,186.626 z" fill="#FFFFFF"/>
      </g>
    </g>
  </g>
</svg>
